X: 104
T:Soun (1)
M:2/4
L:1/8
C:Stephane Rogowski
D:Les Brayauds : Jusqu'au Petit Matin, Silex Y225202
R:Bourree
Z:Steve Mansfield
K:C
g>e cg- | g>e ce | f>d Bf | dB d/c/d/e/ | g>e cg- | g>e cg |
|1 c'2b2 | e/d/c/d/ e/c/d :|2 fe d2 | c2 de/d/ |: e>d eg- |g>f ed |
d>c df- |f>e dc | e>d eg- | g>f eg |1 a2g2 | e/d/c/d/ e/c/d :|2 a2g>f | edc2 ||

